X:1
T:Novi Sad, 87.87 D
T:Novi Sad, 87.87 D
T:Jairus Maxson Stillman, 1870
T:Public Domain Courtesy of the Cyber Hymnal™
C:Jairus Maxson Stillman, 1870
Z:Public Domain
Z:Courtesy of the Cyber Hymnal™
%%score ( 1 2 ) ( 3 4 )
L:1/8
Q:1/4=97
M:3/4
K:Ab
V:1 treble 
V:2 treble 
V:3 bass 
V:4 bass 
V:1
 [CE][CE] | [CE]3 [Ec] [DB][CA] | [DF] [DA]3 [EG][DF] | E3 [EA] [DB]>[Cc] | [EB]4 [EB][Ec] | %5
 [Ed]3 [Ed] [Ec][EB] | [Ec] [Ae]3 [EA]>[EG] | [DF]3 [FB] [EG][DE] | [CA]4 [Ee]>[Ed] | %9
 [Ec]2 [Ec]2 [Ed]>[Ec] | [EB]2 [GB]2 [Ec]>[EB] | [EA]3 [EG] [EA]>[Ec] | [EB]4 [Ee]>[Ed] | %13
 [Ec]2 [Ec]2 [Ed]>[Ec] | [EB]2 [GB]2 [Gc]>[GB] | A3 [Ec] [DB]>[DG] | [CA]4 |] %17
V:2
 x2 | x6 | x6 | E3 x3 | x6 | x6 | x6 | x6 | x6 | x6 | x6 | x6 | x6 | x6 | x6 | A3 x3 | x4 |] %17
V:3
 [A,,A,][A,,A,] | [A,,A,]3 [A,,A,] [A,,A,][A,,A,] | [D,A,] [D,F,]3 [D,A,][D,A,] | %3
 [C,A,]3 [C,A,] [B,,G,]>[A,,A,] | [E,G,]4 [E,G,][E,A,] | [E,B,]3 [E,B,] [E,A,][E,G,] | %6
 A, [A,C]3 [C,A,]>[C,A,] | [D,A,]3 [B,,D] [E,B,][E,B,] | [A,,A,]4 [E,C]>[E,B,] | %9
 A,2 A,2 [G,B,]>A, | [E,G,]2 [E,B,]2 [E,E]>[E,D] | [A,C]3 [E,B,] [C,A,]>[A,,A,] | %12
 [E,G,]4 [E,C]>[E,B,] | A,2 A,2 [G,B,]>A, | [E,G,]2 [E,B,]2 [E,E]>[E,D] | [A,C]3 A, [E,G,]>[E,B,] | %16
 [A,,A,]4 |] %17
V:4
 x2 | x6 | x6 | x6 | x6 | x6 | A, x5 | x6 | x6 | A,2 A,2 A,/ x3/2 | x6 | x6 | x6 | %13
 A,2 A,2 A,/ x3/2 | x6 | x3 A, x2 | x4 |] %17

